X:1
T:Title
%%score { ( 1 3 ) | ( 2 4 5 6 ) }
L:1/8
Q:1/4=100
M:3/4
K:F
V:1 treble nm="Grand Piano"
V:3 treble 
V:2 bass 
V:4 bass 
V:5 bass 
V:6 bass 
V:1
 [A,C]2 [A,CD]2 [A,CE]2 | [A,CG][A,CF] [A,CA]4 | [C^FA]2 [CFB]2 [CFA]2 | [B,D]6 | %4
w: I.~H.~Meredith * *||||
 [B,E]2 [B,F]2 [B,^F]2 | [B,EA][B,EG] [CEc]4 | [DEB]2 [CEA]2 [B,E_A]2 | [A,FA]6 | %8
w: ||||
 [A,C]2 [A,CD]2 [A,CE]2 | [A,CG][A,CF] [A,CA]4 | [C^FA]2 [Fd]2 [CFA]2 | [B,DG]6 | %12
w: ||||
 [=B,DF]2 [B,DE]2 [B,DF]2 | dc [CFA]4 | [=B,FG]2 [CFA]2 [DF=B]2 | %15
w: |||
[M:7/8] [EGc]-[EGc]-[EGc]- [EGc]- [EGc]3 |[M:3/4] [Ff]2 [Cc]4 | [DGBd]2 [DGB]4 | %18
w: |||
 .[CFA]2 [CEA]2 [CEG]2 | [CFc]6 | CA GF EF | c2 z2 B,2 | CB AG ^FG | z2 A4 | [Ff]2 [Cc]4 | %25
w: |||||||
 [DGBd]2 [DGB]4 | .[CFA]2 [CEA]2 [CEG]2 | [CFc]6 | [_EAc][Ac] [EA=B][Ac] [EAd]A | [DFc]2 [DFB]4 | %30
w: |||||
 .[CFA]2 [B,DA]2 [B,EG]2[Q:1/4=97][Q:1/4=94][Q:1/4=91][Q:1/4=88][Q:1/4=84][Q:1/4=81][Q:1/4=78] | %31
w: |
 [A,F]4 z2 |] %32
w: |
V:2
 F,,C, F,2 C,2 | F,,C, F,2 C,2 | D,,D, F,2 D,2 | G,,D, G,2 D,2 | C,,C, G,2 C,2 | C,,C, G,2 C,2 | %6
 C,,C, C,2 C,2 | F,,C, F,2 C,2 | F,,C, F,2 C,2 | F,,C, F,2 C,2 | D,,D, [A,C]2 D,2 | G,,D, G,2 D,2 | %12
 =B,,F, G,2 _A,2 | C,F, A,2 F,2 | G,,D, G,2 G,,2 |[M:7/8] z2 G,2 C,3 | %16
[M:3/4] z/[K:treble] c3/2 z/ A3/2- A2 | G,,D, G,2 D,2 | z[K:treble] c[K:bass] C,2 B,,2 | %19
 A,,F, A,2 F,2 | F,,2 [C,F,A,]2 [C,F,A,]2 | A,,2 [C,G,B,]2 [C,G,]2 | C,,2 [C,E,B,]2 [C,E,B,]2 | %23
 F,,2 [C,F,A,]2 [C,F,]2 | z/[K:treble] c3/2 z/ A3/2- A2 | G,,D, G,2 D,2 | %26
 z[K:treble] c[K:bass] C,2 B,,2 | A,,F, A,2 F,2 | z _E z E z E | B,,F, B,2 F,2 | %30
 z[K:treble] c[K:bass] C,2 C,2 | [F,,C,]4 z2 |] %32
V:3
 x6 | x6 | x6 | x6 | x6 | x6 | x6 | x6 | x6 | x6 | x6 | x6 | x6 | [FA]2 z2 z2 | x6 | %15
[M:7/8] z z z2 B,3 |[M:3/4] x6 | x6 | x6 | x6 | x6 | z2 E4 | x6 | d2 z2 A,2 | x6 | x6 | x6 | x6 | %28
 x6 | x6 | x6 | x6 |] %32
V:4
 x6 | x6 | x6 | x6 | x6 | x6 | x6 | x6 | x6 | x6 | x6 | x6 | x6 | x6 | x6 |[M:7/8] C,- C,3 z z2 | %16
[M:3/4] z/4[K:treble] A3/4-A z/4 F3/4- F3 | x6 | C,2[K:treble][K:bass] z2 z2 | x6 | x6 | x6 | x6 | %23
 x6 | z/4[K:treble] A3/4-A z/4 F3/4- F3 | x6 | C,2[K:treble][K:bass] z2 z2 | x6 | F,,2 F,2 F,2 | %29
 x6 | C,2[K:treble][K:bass] z2 z2 | x6 |] %32
V:5
 x6 | x6 | x6 | x6 | x6 | x6 | x6 | x6 | x6 | x6 | x6 | x6 | x6 | x6 | x6 |[M:7/8] x7 | %16
[M:3/4] z[K:treble] C, z2 C,2 | x6 | x[K:treble] x[K:bass] x4 | x6 | x6 | x6 | x6 | x6 | %24
 z[K:treble] C, z2 C,2 | x6 | x[K:treble] x[K:bass] x4 | x6 | x6 | x6 | x[K:treble] x[K:bass] x4 | %31
 x6 |] %32
V:6
 x6 | x6 | x6 | x6 | x6 | x6 | x6 | x6 | x6 | x6 | x6 | x6 | x6 | x6 | x6 |[M:7/8] x7 | %16
[M:3/4] .F,,2[K:treble] F,2 z2 | x6 | x[K:treble] x[K:bass] x4 | x6 | x6 | x6 | x6 | x6 | %24
 .F,,2[K:treble] F,2 z2 | x6 | x[K:treble] x[K:bass] x4 | x6 | x6 | x6 | x[K:treble] x[K:bass] x4 | %31
 x6 |] %32

